X:1
T:Kas a Barc'h : BBC 2
E:12
Z:Roger Ngaret (94-95)
R:andro
C:Trad.
S:
A:Bretagne
Q:1/4=84
M:2/4
L:1/16
K:C
G2cG e2c2 | dedB c2G2 | AGAB c2Bc |1 d2B2 G4 :|2\
d2B2 c4 |: d2dB d2d2 | cBcd B2G2 | dedc B2G2 |1 AGAB A4 :|2 AGAB G4 |]
